X:345
T:Black Rogue, The
R:jig
H:Also in D, #149
Z:id:hn-jig-345
M:6/8
K:Dmix
d|cAA BAG|cAA A2d|cAA BAG|AFD D2d|cAA BAG|cAA AFD|GFG BAB|AFD D2:|
|:e|~f3 gfg|afd cAA|~f3 ~g3|afd dfg|afa geg|fdf e2d|cBA BAG|AFD D2:|

